icons/svgs/location-pin-lock-outline.svg

<svg width="24" height="24" viewBox="0 0 24 24" fill="none" xmlns="http://www.w3.org/2000/svg">
<path d="M9.5 19.6562C10.2031 18.7188 11.1016 17.5078 12 16.2188V19.4609C11.375 20.2812 10.8281 20.9844 10.3984 21.5312C9.92969 22.1172 9.03125 22.1172 8.5625 21.5312C6.57031 18.9922 2 12.9375 2 9.5C2 5.35938 5.35938 2 9.5 2C13.2109 2 16.3359 4.73438 16.8828 8.32812C16.2188 8.44531 15.6328 8.67969 15.0859 9.07031C14.8516 6.17969 12.4297 3.875 9.5 3.875C6.375 3.875 3.875 6.41406 3.875 9.5C3.875 10.0078 4.03125 10.75 4.46094 11.7656C4.85156 12.7031 5.4375 13.7969 6.10156 14.8906C7.23438 16.6875 8.52344 18.4062 9.5 19.6562ZM10.75 9.5C10.75 8.83594 10.1641 8.25 9.5 8.25C8.79688 8.25 8.25 8.83594 8.25 9.5C8.25 10.2031 8.79688 10.75 9.5 10.75C10.1641 10.75 10.75 10.2031 10.75 9.5ZM6.375 9.5C6.375 8.40625 6.96094 7.39062 7.9375 6.80469C8.875 6.25781 10.0859 6.25781 11.0625 6.80469C12 7.39062 12.625 8.40625 12.625 9.5C12.625 10.6328 12 11.6484 11.0625 12.2344C10.0859 12.7812 8.875 12.7812 7.9375 12.2344C6.96094 11.6484 6.375 10.6328 6.375 9.5ZM17.625 11.375C16.9219 11.375 16.375 11.9609 16.375 12.625V14.5H18.875V12.625C18.875 11.9609 18.2891 11.375 17.625 11.375ZM14.5 12.625C14.5 10.9062 15.8672 9.5 17.625 9.5C19.3438 9.5 20.75 10.9062 20.75 12.625V14.5C21.4141 14.5 22 15.0859 22 15.75V20.75C22 21.4531 21.4141 22 20.75 22H14.5C13.7969 22 13.25 21.4531 13.25 20.75V15.75C13.25 15.0859 13.7969 14.5 14.5 14.5V12.625Z" fill="black"/>
</svg>

<svg xmlns="http://www.w3.org/2000/svg" width="24" height="24" fill="currentColor" class="icon-location-pin-lock-outline" viewBox="0 0 24 24">
  <mask id="a" width="20" height="20" x="2" y="2" maskUnits="userSpaceOnUse" style="mask-type:alpha">
    <path d="M9.5 19.656c.703-.937 1.602-2.148 2.5-3.437v3.242c-.625.82-1.172 1.523-1.602 2.07a1.178 1.178 0 0 1-1.835 0C6.57 18.992 2 12.938 2 9.5 2 5.36 5.36 2 9.5 2c3.71 0 6.836 2.734 7.383 6.328a4.3 4.3 0 0 0-1.797.742C14.852 6.18 12.43 3.875 9.5 3.875A5.626 5.626 0 0 0 3.875 9.5c0 .508.156 1.25.586 2.266.39.937.976 2.03 1.64 3.125 1.133 1.797 2.422 3.515 3.399 4.765M10.75 9.5c0-.664-.586-1.25-1.25-1.25-.703 0-1.25.586-1.25 1.25 0 .703.547 1.25 1.25 1.25.664 0 1.25-.547 1.25-1.25m-4.375 0c0-1.094.586-2.11 1.563-2.695.937-.547 2.148-.547 3.125 0C12 7.39 12.625 8.406 12.625 9.5c0 1.133-.625 2.148-1.562 2.734-.977.547-2.188.547-3.126 0A3.16 3.16 0 0 1 6.376 9.5m11.25 1.875c-.703 0-1.25.586-1.25 1.25V14.5h2.5v-1.875c0-.664-.586-1.25-1.25-1.25m-3.125 1.25A3.11 3.11 0 0 1 17.625 9.5a3.134 3.134 0 0 1 3.125 3.125V14.5c.664 0 1.25.586 1.25 1.25v5c0 .703-.586 1.25-1.25 1.25H14.5c-.703 0-1.25-.547-1.25-1.25v-5c0-.664.547-1.25 1.25-1.25z"/>
  </mask>
  <g mask="url(#a)">
    <path d="M0 0h24v24H0z"/>
  </g>
</svg>
